;Generated with Cura_SteamEngine 15.05
; Default start code
G28 ; Home extruder
G1 Z15 F100
M107 ; Turn off fan
G90 ; Absolute positioning
M82 ; Extruder in absolute mode
M190 S50
; Activate all used extruder
M104 T0 S210
G92 E0 ; Reset extruder position
; Wait for all used extruders to reach temperature
M109 T0 S210
;Layer count: 71
;LAYER:0
M107
G0 F9000 X62.677 Y66.266 Z0.300
;TYPE:SKIRT
G4 P200 
G6 A45
G6 B20 R
G2 X90.6 Y13.8 I5 J10 E22.4
G3 X90.6 Y13.8 I5 J10 E22.4 (extruding 22.4mm of material between starting and stopping)
G10 P2 X17.8 Y-19.3 Z0.0
G10 P1 R140 S205
G28 X Z ; Home the X and Z axes
G29.1 X30 Y20 Z0.5
G29.2 Z0.0 
G28 
G30 P3 X180 Y180 Z-99999 S-1 
G30 X123 Y123 Z123 A123 E R I D T S U 
G33 R0 L0
M550 PGodzilla
G92.1 V-123.33 W    *23
G1 (start layer)F1800 X65.134 Y65.014 E0.13758;Start layer 0
G1 X65.648 Y64.738 E0.16668*56 (Begin extruder.)
G1 X68.705 Y64.254 E0.32110*57
G1 X75.626 Y64.249 E0.66639*58
G1 X87.714 Y64.249 E1.26946*59
G1 X87.716 Y72.382 E1.67522*60
G1 X87.705 Y73.900 E1.75095
G1 X87.716 Y73.900 E1.75150
G1 X87.716 Y82.033 E2.15726
G1 X87.688 Y85.750 E2.34271
G1 X69.024 Y85.750 E3.27386
G1 X68.638 Y85.735 E3.29313
G1 X65.685 Y85.266 E3.44230
G1 X62.676 Y83.732 E3.61080
G1 X60.289 Y81.345 E3.77922
G1 X58.755 Y78.336 E3.94772
G1 X58.226 Y75.000 E4.11623
G1 X58.661 Y72.253 E4.25499
G1 X58.757 Y71.659 E4.28501
G1 X60.031 Y69.158 E4.42504
G1 X60.315 Y68.628 E4.45504
G1 X62.677 Y66.266 E4.62169
G0 F9000 X62.915 Y66.594
G1 F1800 X65.290 Y65.384 E4.75467
G1 X65.777 Y65.123 E4.78224
G1 X68.737 Y64.654 E4.93176
G1 X75.626 Y64.649 E5.27545
G1 X87.314 Y64.649 E5.85857
G1 X87.316 Y72.381 E6.24432
G1 X87.302 Y74.300 E6.34006
G1 X87.316 Y74.300 E6.34076
G1 X87.316 Y82.031 E6.72646
G1 X87.291 Y85.350 E6.89205
G1 X69.032 Y85.350 E7.80299
G1 X68.677 Y85.336 E7.82072
G1 X65.810 Y84.881 E7.96554
G1 X62.914 Y83.405 E8.12771
G1 X60.616 Y81.107 E8.28985
G1 X59.140 Y78.211 E8.45201
G1 X58.631 Y75.000 E8.61421
G1 X59.056 Y72.316 E8.74978
G1 X59.142 Y71.785 E8.77662
G1 X60.386 Y69.343 E8.91335
G1 X60.640 Y68.869 E8.94018
G1 X62.915 Y66.594 E9.10069
G1 F2400 E5.10069
G0 F9000 X65.175 Y69.707
;TYPE:WALL-INNER
G1 F2400 E9.10069
G1 F1800 X67.001 Y68.777 E9.20293
G1 X69.040 Y68.454 E9.30592
G1 X83.515 Y68.449 E10.02808
G1 X83.516 Y71.900 E10.20025
G1 X72.312 Y71.900 E10.75922
G1 X71.300 Y71.051 E10.82513
G1 X69.813 Y70.510 E10.90407
G1 X68.230 Y70.510 E10.98305
G1 X66.741 Y71.051 E11.06208
G1 X65.529 Y72.068 E11.14102
G1 X64.738 Y73.441 E11.22007
G1 X64.462 Y75.000 E11.29906
G1 X64.717 Y76.445 E11.37227
G1 X64.743 Y76.567 E11.37849
G1 X65.468 Y77.824 E11.45088
G1 X65.531 Y77.932 E11.45712
G1 X66.645 Y78.867 E11.52968
G1 X66.737 Y78.946 E11.53573
G1 X68.112 Y79.446 E11.60872
G1 X68.229 Y79.489 E11.61494
G1 X69.813 Y79.489 E11.69397
G1 X71.183 Y78.990 E11.76671
G1 X71.301 Y78.947 E11.77298
G1 X72.312 Y78.100 E11.83878
G1 X83.516 Y78.100 E12.39775
G1 X83.516 Y81.550 E12.56987
G1 X69.117 Y81.550 E13.28824
G1 X69.050 Y81.547 E13.29158
G1 X67.001 Y81.222 E13.39509
G1 X65.174 Y80.291 E13.49739
G1 X63.730 Y78.847 E13.59927
G1 X62.799 Y77.020 E13.70157
G1 X62.479 Y75.000 E13.80361
G1 X62.799 Y72.977 E13.90579
G1 X63.728 Y71.154 E14.00787
G1 X65.175 Y69.707 E14.10996
G0 F9000 X64.936 Y69.380
;TYPE:WALL-OUTER
G1 F1800 X66.875 Y68.392 E14.21853
G1 X69.008 Y68.054 E14.32628
G1 X83.915 Y68.049 E15.06999
G1 X83.916 Y72.300 E15.28207
G1 X72.167 Y72.300 E15.86823
G1 X71.097 Y71.403 E15.93789
G1 X69.742 Y70.910 E16.00983
G1 X68.301 Y70.910 E16.08172
G1 X66.944 Y71.403 E16.15375
G1 X65.840 Y72.329 E16.22564
G1 X65.119 Y73.580 E16.29768
G1 X64.868 Y75.000 E16.36962
G1 X65.110 Y76.369 E16.43898
G1 X65.121 Y76.422 E16.44168
G1 X65.813 Y77.623 E16.51083
G1 X65.841 Y77.670 E16.51356
G1 X66.900 Y78.558 E16.58251
G1 X66.943 Y78.595 E16.58534
G1 X68.301 Y79.089 E16.65743
G1 X69.742 Y79.089 E16.72933
G1 X71.097 Y78.596 E16.80126
G1 X72.167 Y77.700 E16.87089
G1 X83.916 Y77.700 E17.45705
G1 X83.916 Y81.950 E17.66908
G1 X69.102 Y81.950 E18.40816
G1 X69.013 Y81.947 E18.41260
G1 X66.873 Y81.607 E18.52070
G1 X64.937 Y80.620 E18.62912
G1 X63.401 Y79.084 E18.73749
G1 X62.414 Y77.148 E18.84591
G1 X62.074 Y75.000 E18.95441
G1 X62.414 Y72.851 E19.06295
G1 X63.398 Y70.919 E19.17112
G1 X64.936 Y69.380 E19.27967
G0 F9000 X65.135 Y69.943
;TYPE:SKIN
G1 F1800 X66.369 Y71.178 E19.36677
G0 F9000 X66.062 Y71.436
G1 F1800 X64.852 Y70.226 E19.45214
G0 F9000 X64.569 Y70.509
G1 F1800 X65.755 Y71.694 E19.53579
G0 F9000 X65.447 Y71.953
G1 F1800 X64.286 Y70.791 E19.61774
G0 F9000 X64.003 Y71.074
G1 F1800 X65.232 Y72.303 E19.70445
G0 F9000 X65.025 Y72.662
G1 F1800 X63.760 Y71.397 E19.79370
G0 F9000 X63.568 Y71.771
G1 F1800 X64.818 Y73.020 E19.88186
G0 F9000 X64.611 Y73.380
G1 F1800 X63.377 Y72.146 E19.96893
G0 F9000 X63.187 Y72.520
G1 F1800 X64.522 Y73.856 E20.06315
G0 F9000 X64.437 Y74.337
G1 F1800 X62.996 Y72.895 E20.16486
G0 F9000 X62.881 Y73.346
G1 F1800 X64.353 Y74.818 E20.26872
G0 F9000 X64.396 Y75.427
G1 F1800 X62.804 Y73.835 E20.38104
G0 F9000 X62.727 Y74.323
G1 F1800 X64.517 Y76.113 E20.50734
G0 F9000 X64.824 Y76.986
G1 F1800 X62.649 Y74.811 E20.66079
G0 F9000 X62.685 Y75.413
G1 F1800 X68.606 Y81.334 E21.07855
G0 F9000 X69.246 Y81.409
G1 F1800 X67.044 Y79.206 E21.23395
G0 F9000 X67.933 Y79.529
G1 F1800 X69.812 Y81.409 E21.36656
G0 F9000 X70.378 Y81.409
G1 F1800 X68.597 Y79.628 E21.49222
G0 F9000 X69.163 Y79.628
G1 F1800 X70.944 Y81.409 E21.61788
G0 F9000 X71.509 Y81.409
G1 F1800 X69.729 Y79.628 E21.74350
G0 F9000 X70.173 Y79.507
G1 F1800 X72.075 Y81.409 E21.87770
G0 F9000 X72.641 Y81.409
G1 F1800 X70.587 Y79.355 E22.02262
G0 F9000 X71.002 Y79.204
G1 F1800 X73.206 Y81.409 E22.17816
G0 F9000 X73.772 Y81.409
G1 F1800 X71.404 Y79.041 E22.34523
G0 F9000 X71.712 Y78.783
G1 F1800 X74.338 Y81.409 E22.53051
G0 F9000 X74.903 Y81.409
G1 F1800 X72.020 Y78.525 E22.73396
G0 F9000 X72.328 Y78.268
G1 F1800 X75.469 Y81.409 E22.95557
G0 F9000 X76.035 Y81.409
G1 F1800 X72.865 Y78.239 E23.17923
G0 F9000 X73.431 Y78.239
G1 F1800 X76.600 Y81.409 E23.40286
G0 F9000 X77.166 Y81.409
G1 F1800 X73.997 Y78.239 E23.62648
G0 F9000 X74.562 Y78.239
G1 F1800 X77.732 Y81.409 E23.85015
G0 F9000 X78.297 Y81.409
G1 F1800 X75.128 Y78.239 E24.07377
G0 F9000 X75.694 Y78.239
G1 F1800 X78.863 Y81.409 E24.29740
G0 F9000 X79.429 Y81.409
G1 F1800 X76.260 Y78.239 E24.52102
G0 F9000 X76.825 Y78.239
G1 F1800 X79.994 Y81.409 E24.74465
G0 F9000 X67.933 Y81.227
G1 F1800 X62.792 Y76.086 E25.10737
G0 F9000 X62.899 Y76.758
G1 F1800 X67.261 Y81.120 E25.41513
G0 F9000 X66.264 Y80.689
G1 F1800 X63.329 Y77.754 E25.62221
G0 F9000 X64.740 Y73.442
G0 X65.532 Y72.071
G0 X66.679 Y70.922
G1 F1800 X65.471 Y69.713 E25.70748
G0 F9000 X65.845 Y69.522
G1 F1800 X67.094 Y70.771 E25.79560
G0 F9000 X67.509 Y70.620
G1 F1800 X66.219 Y69.331 E25.88659
G0 F9000 X66.594 Y69.140
G1 F1800 X67.924 Y70.470 E25.98042
G0 F9000 X68.389 Y70.369
G1 F1800 X66.969 Y68.949 E26.08061
G0 F9000 X67.435 Y68.849
G1 F1800 X68.954 Y70.369 E26.18782
G0 F9000 X69.520 Y70.369
G1 F1800 X67.923 Y68.772 E26.30050
G0 F9000 X68.412 Y68.695
G1 F1800 X70.229 Y70.511 E26.42866
G0 F9000 X71.117 Y70.835
G1 F1800 X68.901 Y68.618 E26.58505
G0 F9000 X69.442 Y68.594
G1 F1800 X72.608 Y71.760 E26.80843
G0 F9000 X73.174 Y71.760
G1 F1800 X70.008 Y68.594 E27.03181
G0 F9000 X70.574 Y68.594
G1 F1800 X73.739 Y71.760 E27.25515
G0 F9000 X74.305 Y71.760
G1 F1800 X71.139 Y68.593 E27.47856
G0 F9000 X71.704 Y68.593
G1 F1800 X74.871 Y71.760 E27.70201
G0 F9000 X75.436 Y71.760
G1 F1800 X72.270 Y68.593 E27.92543
G0 F9000 X72.835 Y68.592
G1 F1800 X76.002 Y71.760 E28.14891
G0 F9000 X76.568 Y71.760
G1 F1800 X73.401 Y68.592 E28.37239
G0 F9000 X73.966 Y68.592
G1 F1800 X77.134 Y71.760 E28.59591
G0 F9000 X77.699 Y71.760
G1 F1800 X74.531 Y68.592 E28.81943
G0 F9000 X75.097 Y68.592
G1 F1800 X78.265 Y71.760 E29.04295
G0 F9000 X78.831 Y71.760
G1 F1800 X75.663 Y68.592 E29.26647
G0 F9000 X76.228 Y68.591
G1 F1800 X79.396 Y71.760 E29.49003
G0 F9000 X79.962 Y71.760
G1 F1800 X76.793 Y68.591 E29.71362
G0 F9000 X77.359 Y68.591
G1 F1800 X80.528 Y71.760 E29.93721
G0 F9000 X81.093 Y71.760
G1 F1800 X77.925 Y68.591 E30.16076
G0 F9000 X78.490 Y68.590
G1 F1800 X81.659 Y71.760 E30.38439
G0 F9000 X82.225 Y71.760
G1 F1800 X79.055 Y68.590 E30.60805
G0 F9000 X79.621 Y68.590
G1 F1800 X82.790 Y71.760 E30.83167
G0 F9000 X83.356 Y71.760
G1 F1800 X80.186 Y68.590 E31.05533
G0 F9000 X80.752 Y68.590
G1 F1800 X83.374 Y71.212 E31.24033
G0 F9000 X83.374 Y70.647
G1 F1800 X81.317 Y68.590 E31.38546
G0 F9000 X81.882 Y68.589
G1 F1800 X83.374 Y70.081 E31.49073
G0 F9000 X83.374 Y69.515
G1 F1800 X82.448 Y68.589 E31.55607
G0 F9000 X83.014 Y68.589
G1 F1800 X83.374 Y68.949 E31.58147
G0 F9000 X63.723 Y71.155
G0 X65.175 Y80.296
G0 X83.048 Y78.239
G1 F1800 X83.375 Y78.567 E31.60457
G0 F9000 X83.375 Y79.133
G1 F1800 X82.482 Y78.239 E31.66761
G0 F9000 X81.916 Y78.239
G1 F1800 X83.375 Y79.698 E31.77055
G0 F9000 X83.375 Y80.264
G1 F1800 X81.351 Y78.239 E31.91339
G0 F9000 X80.785 Y78.239
G1 F1800 X83.375 Y80.830 E32.09617
G0 F9000 X83.375 Y81.395
G1 F1800 X80.219 Y78.239 E32.31884
G0 F9000 X79.654 Y78.239
G1 F1800 X82.823 Y81.409 E32.54247
G0 F9000 X82.257 Y81.409
G1 F1800 X79.088 Y78.239 E32.76609
G0 F9000 X78.522 Y78.239
G1 F1800 X81.692 Y81.409 E32.98975
G0 F9000 X81.126 Y81.409
G1 F1800 X77.957 Y78.239 E33.21338
G0 F9000 X77.391 Y78.239
G1 F1800 X80.560 Y81.409 E33.43700
;LAYER:1
M106 S63
G0 F9000 X83.631 Y81.550 Z0.500
;TYPE:WALL-INNER
G1 F2220 X69.170 Y81.550 E33.91798
G1 X69.028 Y81.544 E33.92270
G1 X67.001 Y81.222 E33.99097
G1 X65.174 Y80.291 E34.05917
G1 X63.730 Y78.847 E34.12709
G1 X62.799 Y77.020 E34.19529
G1 X62.479 Y75.000 E34.26331
G1 X62.799 Y72.978 E34.33140
G1 X63.728 Y71.154 E34.39948
G1 X65.175 Y69.707 E34.46755
G1 X67.000 Y68.777 E34.53567
G1 X69.009 Y68.459 E34.60333
G1 X83.630 Y68.449 E35.08962
G1 X83.631 Y71.900 E35.20440
G1 X72.312 Y71.900 E35.58087
G1 X71.300 Y71.051 E35.62481
G1 X69.813 Y70.510 E35.67744
G1 X68.230 Y70.510 E35.73009
G1 X66.741 Y71.051 E35.78278
G1 X65.529 Y72.068 E35.83540
G1 X64.738 Y73.441 E35.88811
G1 X64.462 Y75.000 E35.94077
G1 X64.713 Y76.419 E35.98869
G1 X64.739 Y76.560 E35.99346
G1 X65.458 Y77.807 E36.04134
G1 X65.531 Y77.932 E36.04615
G1 X66.631 Y78.855 E36.09391
G1 X66.743 Y78.948 E36.09876
G1 X68.094 Y79.439 E36.14657
G1 X68.226 Y79.489 E36.15126
G1 X69.813 Y79.489 E36.20404
G1 X71.168 Y78.997 E36.25199
G1 X71.304 Y78.945 E36.25683
G1 X72.311 Y78.100 E36.30056
G1 X83.631 Y78.100 E36.67706
G1 X83.631 Y81.550 E36.79181
G0 F9000 X84.030 Y81.950
;TYPE:WALL-OUTER
G1 F1980 X69.176 Y81.950 E37.28585
G1 X68.982 Y81.942 E37.29231
G1 X66.873 Y81.607 E37.36334
G1 X64.937 Y80.620 E37.43561
G1 X63.401 Y79.084 E37.50786
G1 X62.414 Y77.148 E37.58014
G1 X62.074 Y75.000 E37.65247
G1 X62.414 Y72.851 E37.72484
G1 X63.386 Y70.945 E37.79600
G1 X63.402 Y70.914 E37.79716
G1 X64.937 Y69.379 E37.86936
G1 X66.847 Y68.406 E37.94065
G1 X66.874 Y68.392 E37.94167
G1 X68.977 Y68.059 E38.01248
G1 X84.030 Y68.049 E38.51315
G1 X84.030 Y72.300 E38.65454
G1 X72.167 Y72.300 E39.04910
G1 X71.097 Y71.403 E39.09554
G1 X69.742 Y70.910 E39.14350
G1 X68.301 Y70.910 E39.19143
G1 X66.944 Y71.403 E39.23945
G1 X65.840 Y72.329 E39.28737
G1 X65.119 Y73.580 E39.33540
G1 X64.868 Y75.000 E39.38336
G1 X65.106 Y76.348 E39.42889
G1 X65.120 Y76.420 E39.43133
G1 X65.803 Y77.606 E39.47685
G1 X65.841 Y77.670 E39.47932
G1 X66.945 Y78.596 E39.52725
G1 X68.228 Y79.062 E39.57265
G1 X68.299 Y79.089 E39.57518
G1 X69.742 Y79.089 E39.62317
G1 X71.029 Y78.622 E39.66871
G1 X71.099 Y78.595 E39.67120
G1 X72.166 Y77.700 E39.71752
G1 X84.031 Y77.700 E40.11215
G1 X84.030 Y81.950 E40.25351
G0 F9000 X83.490 Y80.841
;TYPE:SKIN
G1 F1980 X82.921 Y81.409 E40.28025
G0 F9000 X82.356 Y81.409
G1 F1980 X83.490 Y80.275 E40.33359
G0 F9000 X83.490 Y79.710
G1 F1980 X81.790 Y81.409 E40.41353
G0 F9000 X81.224 Y81.409
G1 F1980 X83.490 Y79.144 E40.52009
G0 F9000 X83.490 Y78.578
G1 F1980 X80.658 Y81.409 E40.65328
G0 F9000 X80.093 Y81.409
G1 F1980 X83.263 Y78.239 E40.80238
G0 F9000 X82.698 Y78.239
G1 F1980 X79.527 Y81.409 E40.95151
G0 F9000 X78.961 Y81.409
G1 F1980 X82.132 Y78.239 E41.10064
G0 F9000 X81.566 Y78.239
G1 F1980 X78.396 Y81.409 E41.24975
G0 F9000 X77.830 Y81.409
G1 F1980 X81.001 Y78.239 E41.39888
G0 F9000 X80.435 Y78.239
G1 F1980 X77.264 Y81.409 E41.54801
G0 F9000 X76.699 Y81.409
G1 F1980 X79.869 Y78.239 E41.69712
G0 F9000 X79.304 Y78.239
G1 F1980 X76.133 Y81.409 E41.84625
G0 F9000 X75.567 Y81.409
G1 F1980 X78.738 Y78.239 E41.99538
G0 F9000 X78.172 Y78.239
G1 F1980 X75.002 Y81.409 E42.14449
G0 F9000 X74.436 Y81.409
G1 F1980 X77.607 Y78.239 E42.29362
G0 F9000 X77.041 Y78.239
G1 F1980 X73.870 Y81.409 E42.44275
G0 F9000 X73.305 Y81.409
G1 F1980 X76.475 Y78.239 E42.59186
G0 F9000 X75.910 Y78.239
G1 F1980 X72.739 Y81.409 E42.74099
G0 F9000 X72.173 Y81.409
G1 F1980 X75.344 Y78.239 E42.89012
G0 F9000 X74.778 Y78.239
G1 F1980 X71.607 Y81.409 E43.03925
G0 F9000 X71.042 Y81.409
G1 F1980 X74.212 Y78.239 E43.18836
G0 F9000 X73.647 Y78.239
G1 F1980 X70.476 Y81.409 E43.33749
G0 F9000 X69.910 Y81.409
G1 F1980 X73.081 Y78.239 E43.48662
G0 F9000 X72.515 Y78.239
G1 F1980 X69.345 Y81.409 E43.63572
G0 F9000 X68.820 Y81.368
G1 F1980 X70.975 Y79.213 E43.73709
G0 F9000 X70.086 Y79.537
G1 F1980 X68.331 Y81.291 E43.81961
G0 F9000 X67.844 Y81.214
G1 F1980 X69.430 Y79.628 E43.89421
G0 F9000 X68.864 Y79.628
G1 F1980 X67.356 Y81.136 E43.96515
G0 F9000 X66.908 Y81.018
G1 F1980 X68.298 Y79.628 E44.03053
G0 F9000 X67.857 Y79.503
G1 F1980 X66.533 Y80.827 E44.09280
G0 F9000 X66.159 Y80.636
G1 F1980 X67.443 Y79.352 E44.15320
G0 F9000 X67.028 Y79.200
G1 F1980 X65.784 Y80.445 E44.21174
G0 F9000 X65.409 Y80.254
G1 F1980 X66.629 Y79.034 E44.26912
G0 F9000 X66.322 Y78.775
G1 F1980 X65.089 Y80.009 E44.32714
G0 F9000 X64.806 Y79.726
G1 F1980 X66.014 Y78.517 E44.38399
G0 F9000 X65.706 Y78.260
G1 F1980 X64.523 Y79.443 E44.43963
G0 F9000 X64.240 Y79.160
G1 F1980 X65.405 Y77.995 E44.49443
G0 F9000 X65.198 Y77.636
G1 F1980 X63.957 Y78.877 E44.55280
G0 F9000 X63.730 Y78.539
G1 F1980 X64.991 Y77.278 E44.61212
G0 F9000 X64.785 Y76.919
G1 F1980 X63.539 Y78.164 E44.67070
G0 F9000 X63.348 Y77.790
G1 F1980 X64.594 Y76.544 E44.72931
G0 F9000 X64.509 Y76.063
G1 F1980 X63.157 Y77.415 E44.79290
G0 F9000 X62.966 Y77.040
G1 F1980 X64.423 Y75.583 E44.86144
G0 F9000 X64.338 Y75.103
G1 F1980 X62.870 Y76.571 E44.93049
G0 F9000 X62.792 Y76.083
G1 F1980 X64.415 Y74.460 E45.00683
G0 F9000 X64.536 Y73.773
G1 F1980 X62.715 Y75.594 E45.09248
G0 F9000 X62.638 Y75.106
G1 F1980 X64.946 Y72.798 E45.20104
G0 F9000 X63.424 Y72.057
G1 F1980 X66.080 Y69.401 E45.32597
G0 F9000 X67.154 Y68.892
G1 F1980 X62.916 Y73.131 E45.52534
G0 F9000 X62.810 Y73.802
G1 F1980 X67.826 Y68.786 E45.76128
G0 F9000 X68.498 Y68.680
G1 F1980 X62.704 Y74.474 E46.03381
G0 F9000 X66.902 Y70.842
G1 F1980 X69.146 Y68.597 E46.13938
G0 F9000 X69.712 Y68.597
G1 F1980 X67.790 Y70.519 E46.22979
G0 F9000 X68.505 Y70.369
G1 F1980 X70.278 Y68.597 E46.31316
G0 F9000 X70.844 Y68.597
G1 F1980 X69.071 Y70.369 E46.39653
G0 F9000 X69.637 Y70.369
G1 F1980 X71.410 Y68.596 E46.47993
G0 F9000 X71.976 Y68.596
G1 F1980 X70.105 Y70.467 E46.56794
G0 F9000 X70.519 Y70.618
G1 F1980 X72.542 Y68.595 E46.66309
G0 F9000 X73.108 Y68.595
G1 F1980 X70.934 Y70.769 E46.76535
G0 F9000 X71.349 Y70.919
G1 F1980 X73.674 Y68.595 E46.87469
G0 F9000 X74.240 Y68.595
G1 F1980 X71.662 Y71.173 E46.99595
G0 F9000 X71.970 Y71.431
G1 F1980 X74.806 Y68.594 E47.12937
G0 F9000 X75.372 Y68.594
G1 F1980 X72.277 Y71.689 E47.27495
G0 F9000 X72.772 Y71.760
G1 F1980 X75.939 Y68.593 E47.42391
G0 F9000 X76.504 Y68.593
G1 F1980 X73.338 Y71.760 E47.57286
G0 F9000 X73.903 Y71.760
G1 F1980 X77.071 Y68.592 E47.72187
G0 F9000 X77.636 Y68.592
G1 F1980 X74.469 Y71.760 E47.87086
G0 F9000 X75.035 Y71.760
G1 F1980 X78.203 Y68.592 E48.01987
G0 F9000 X78.768 Y68.592
G1 F1980 X75.601 Y71.760 E48.16886
G0 F9000 X76.166 Y71.760
G1 F1980 X79.335 Y68.591 E48.31792
G0 F9000 X79.900 Y68.591
G1 F1980 X76.732 Y71.760 E48.46696
G0 F9000 X77.298 Y71.760
G1 F1980 X80.467 Y68.590 E48.61604
G0 F9000 X81.033 Y68.590
